src/assets/img/Login/icons/green_facebook.svg

<svg width="30" height="30" viewBox="0 0 30 30" fill="none" xmlns="http://www.w3.org/2000/svg">
<g id="Icon">
<path id="path4" d="M26.0533 21.4311C25.6374 22.3919 25.1451 23.2763 24.5748 24.0893C23.7973 25.1978 23.1608 25.9651 22.6702 26.3911C21.9097 27.0905 21.095 27.4487 20.2225 27.469C19.5961 27.469 18.8407 27.2908 17.9614 26.9292C17.0792 26.5694 16.2685 26.3911 15.5272 26.3911C14.7498 26.3911 13.916 26.5694 13.0241 26.9292C12.1309 27.2908 11.4114 27.4792 10.8612 27.4979C10.0245 27.5335 9.19055 27.1652 8.35811 26.3911C7.8268 25.9277 7.16224 25.1333 6.36612 24.0079C5.51195 22.8061 4.80971 21.4124 4.25955 19.8236C3.67036 18.1074 3.375 16.4456 3.375 14.8367C3.375 12.9938 3.77323 11.4043 4.57087 10.0722C5.19775 9.00232 6.03172 8.15833 7.0755 7.53875C8.11928 6.91917 9.24708 6.60344 10.4616 6.58324C11.1262 6.58324 11.9977 6.78881 13.0807 7.19281C14.1606 7.59817 14.854 7.80373 15.158 7.80373C15.3853 7.80373 16.1556 7.56337 17.4615 7.08417C18.6964 6.63977 19.7387 6.45576 20.5925 6.52824C22.9062 6.71497 24.6444 7.62702 25.8004 9.27018C23.7311 10.5239 22.7076 12.28 22.7279 14.5327C22.7466 16.2874 23.3832 17.7476 24.6342 18.9069C25.2011 19.445 25.8343 19.8609 26.5388 20.1563C26.386 20.5993 26.2247 21.0237 26.0533 21.4311ZM20.747 0.550401C20.747 1.92571 20.2445 3.20984 19.243 4.39842C18.0344 5.8114 16.5725 6.62789 14.9873 6.49905C14.9671 6.33405 14.9554 6.1604 14.9554 5.97792C14.9554 4.65762 15.5301 3.24464 16.5508 2.08933C17.0604 1.50438 17.7085 1.01801 18.4944 0.630012C19.2787 0.247807 20.0205 0.0364399 20.7181 0.000244141C20.7385 0.184102 20.747 0.367972 20.747 0.550383V0.550401Z" fill="#CAFF33"/>
</g>
</svg>

<svg xmlns="http://www.w3.org/2000/svg" width="30" height="30" fill="none"><path fill="#CAFF33" d="M26.053 21.431a14.95 14.95 0 0 1-1.478 2.658c-.778 1.109-1.414 1.876-1.905 2.302-.76.7-1.575 1.058-2.448 1.078-.626 0-1.381-.178-2.26-.54-.883-.36-1.694-.538-2.435-.538-.777 0-1.611.178-2.503.538-.893.362-1.613.55-2.163.569-.837.035-1.67-.333-2.503-1.107-.531-.463-1.196-1.258-1.992-2.383-.854-1.202-1.556-2.596-2.106-4.184-.59-1.717-.885-3.378-.885-4.987 0-1.843.398-3.433 1.196-4.765A7.015 7.015 0 0 1 7.076 7.54a6.738 6.738 0 0 1 3.386-.956c.664 0 1.536.206 2.619.61 1.08.405 1.773.61 2.077.61.227 0 .998-.24 2.304-.719 1.234-.444 2.277-.628 3.13-.556 2.314.187 4.052 1.099 5.208 2.742-2.069 1.254-3.092 3.01-3.072 5.263.019 1.754.655 3.215 1.906 4.374.567.538 1.2.954 1.905 1.25-.153.442-.314.867-.486 1.274ZM20.747.551c0 1.375-.503 2.659-1.504 3.847-1.209 1.413-2.67 2.23-4.256 2.101a4.282 4.282 0 0 1-.032-.521c0-1.32.575-2.733 1.596-3.889.51-.585 1.158-1.071 1.943-1.459C19.28.248 20.02.036 20.718 0c.02.184.029.368.029.55Z"/></svg>
